X:1
T:River of Life, PM
T:Robert Lowry (1826-1899)
T:River of Life, PM
T:Public Domain
C:Robert Lowry (1826-1899)
Z:Public Domain
%%score ( 1 2 ) ( 3 4 )
L:1/8
M:4/4
K:Bb
V:1 treble 
V:2 treble 
V:3 bass 
V:4 bass 
V:1
 [DB]2 [DB]>[DB] [DB]2 [DB]2 | [Fd]4 [DB]2 z2 | [DF]2 [B,D]>[DF] [FB]2 [Fd]2 | [Fc]8 | %4
 [Fd]2 [DB]>[EG] [DF]2 [B,D]2 | [DF]4 [DB]4 | [CA]2 [CA]>[DB] [CA]2 [CG]2 | [CF]8 | %8
 [Ec]3 [DB] [Fd]2 [Ec]2 | [DB]3 [DF] [B,D]2 [DF]2 | [EG]2 [FA]2 [FB]2 [Ge]2 | (d4 c2 E2) | %12
 [Fd]3 [Fd] [Ge]2 [Fd]2 | (cB)([FA][EG]) ([DF][CE])([B,D][DF]) | [EG]2 [Ec]2 [DB]2 [CA]2 | [DB]8 |] %16
V:2
 x8 | x8 | x8 | x8 | x8 | x8 | x8 | x8 | x8 | x8 | x8 | F6 x2 | x8 | G2 x6 | x8 | x8 |] %16
V:3
 [B,,F,]2 [B,,F,]>[B,,F,] [B,,F,]2 [B,,F,]2 | [B,,B,]4 [B,,F,]2 z2 | %2
 [B,,B,]2 [B,,F,]>[B,,B,] [D,B,]2 [B,,B,]2 | [F,A,]8 | [B,,B,]2 [B,,B,]>[B,,B,] [B,,B,]2 [B,,F,]2 | %5
 [B,,B,]4 [B,,F,]4 | [C,F,]2 [C,F,]>[C,F,] [C,F,]2 [C,B,]2 | [F,A,]8 | [F,A,]3 F, [F,B,]2 [F,A,]2 | %9
 [B,,B,]3 [B,,B,] [B,,F,]2 [B,,B,]2 | [E,B,]2 [E,C]2 [D,B,]2 [E,B,]2 | (B,4 A,2) z2 | %12
 B,3 B, B,2 B,2 | [E,B,]2 [E,B,]2 (B,F,)(F,B,) | [E,B,]2 [E,G,]2 F,2 F,2 | [B,,F,]8 |] %16
V:4
 x8 | x8 | x8 | x8 | x8 | x8 | x8 | x8 | x3 F, x4 | x8 | x8 | F,6 x2 | B,3 B, B,2 B,2 | %13
 x4 B,,2 B,,2 | x4 F,2 F,2 | x8 |] %16

